!!!SOCIAL_FUNCTION:	bird dance songs
!!!PDT:	1956
!!!OTL: No_120_Hinata_Dance_Song_(p).krn
!!!LANG: Non-Tone
!!!LING_GROUP: Muskogean
!!!REG: Florida
**kern
*staff1
=1-
=
*clefF4
*k[b-]
*M2/4
8c\L
16c\L
16A\JJ
16c\LK
8.c\J
=2
(8B-\L
8A\J)
16F\LK
8.F\J
=3
8.c\L
16A\Jk
16B-\LK
8B-\
16A\Jk
=4
4F\
8F\L
16F\Jk
16r
=5
4F\
16C/LK
8C/
16F/Jk
=6
12F\L
12F\
12F\J
(8.B-\L
16A\Jk)
=7
16F\LK
8.F\J
4r
=8
4F\
8F\L
16F\Jk
16r
=9
(4F\
8.C/L)
16C/Jk
==:|!
*-
